X:1
T:Title
%%score { ( 1 3 5 ) | ( 2 4 ) }
L:1/8
M:4/4
K:Ab
V:1 treble nm="Grand Piano"
V:3 treble 
V:5 treble 
V:2 bass 
V:4 bass 
V:1
 z4 z[Q:1/4=94] EFG | A4 z4 | E6[K:bass][K:treble] z2 | B4 z4 | A6 z2 | A4 z4 | %6
[M:5/8] [DF]-[DF]- [DF]3 |[M:3/8] F=EF |[M:4/4] G4 z4 |[M:5/8] A-A- A3 |[M:3/8] ccc | %11
[M:4/4] c-[Fc-][Gc][=EG] [EG][EG][FA][GB] | [FA-]2 A4 z2 | B4 z4 | %14
[M:17/16] E/-E/-E/-E/-E/-E/-E/-E-<E z/ z/ z/ z/ z |[M:4/4] A-[CA-][CA]G [CB][CA][Fd][Ec] | %16
[M:17/16] [DF]/-[DF]/-[DF]/-[DF]/-[DF]/-[DF]/-[DF]/-[DF]-<[DF] z/ z/ z/ z/ z |[M:4/4] G4 z4 | %18
[M:11/16] [CA]-<[CA-]A/-A/-A/-A-<A |] %19
V:2
 z8 | [A,,E,][A,,E,][A,,E,][A,,E,] z C .[E,A,C]2 | .[E,G,B,]2 z2 z4 | %3
 [E,G,D][E,G,][E,G,][E,_G,C] DE[B,D][=G,D] | .[A,C]2 [F,A,][=E,A,] .[A,,_E,A,]2 z2 | %5
 [A,,E,][A,,E,][A,,E,][A,,E,] [A,,E,]2 [A,,A,]2 |[M:5/8] [D,A,]D,D, D,D, |[M:3/8] z3 | %8
[M:4/4] [E,B,D][E,B,][E,B,][E,B,D] DFED |[M:5/8] z A,F, =E,_E, |[M:3/8] =EEE | %11
[M:4/4] [C,G,][C,A,][C,B,][C,C] [C,C][C,C][C,C][C,C] | %12
 F,F,[C,C]C, [F,C][K:treble][F,CF][G,C=E][A,C] | %13
 [B,=DF][B,E][K:bass][B,D]B,, B,,B,,[B,,F,][B,,A,B,] |[M:17/16] [G,B,]G,A,A,B,3/2 z/ z/ z/ z/ z | %15
[M:4/4] [A,,E,][A,,E,] z C [A,,E,]2 [A,,A,]2 |[M:17/16] [D,A,]D,D,D,D,3/2 z/ z/ z/ z/ z | %17
[M:4/4] [E,B,D][E,B,][E,B,][E,A,D] [E,G,D][E,G,F][E,A,E][E,G,D] |[M:11/16] z A,F,=E,_E,3/2 |] %19
V:3
 x8 | CCC[CG] [CB]AEC | z[K:bass] B,B,B, B,E[K:treble]GA | z DD=A cBGE | z A,D_C =CEFG | %5
 CCC[CG] [CB][CA][Fd][Ec] |[M:5/8] z A,A, A,A, |[M:3/8] x3 |[M:4/4] z DDF EdcB | %9
[M:5/8] [A,C]CD DC |[M:3/8] x3 |[M:4/4] .=E2 z2 z4 | z2 F2 z4 | z GA[C=DA] [B,EG][A,DF][DA]D | %14
[M:17/16] z B,CCD3/2EFG |[M:4/4] .C2 z2 z4 |[M:17/16] z A,A,A,A,3/2F=EF |[M:4/4] z DDF EdcB | %18
[M:11/16] A, z D-<DC3/2 |] %19
V:4
 x8 | z4 [A,,E,]2 z2 | D-[E,G,D-][E,G,D-][E,G,D-] [E,G,D]2 z2 | z4 [E,=G,]2 E,2 | x8 | x8 | %6
[M:5/8] x5 |[M:3/8] x3 |[M:4/4] z4 [E,G,]2 [E,G,]2 |[M:5/8] A,,-A,,- A,,3 |[M:3/8] x3 |[M:4/4] x8 | %12
 x5[K:treble] x3 | x2[K:bass] x6 |[M:17/16] E,/-E,/-E,/-E,/-E,/-E,/-E,/-E,-<E, z/ z/ z/ z/ z | %15
[M:4/4] z2 [A,,E,]2 z4 |[M:17/16] x17/2 |[M:4/4] x8 | %18
[M:11/16] A,,/-A,,/-A,,/-A,,/-A,,/-A,,/-A,,/-A,,-<A,, |] %19
V:5
 x8 | x8 | x[K:bass] x5[K:treble] x2 | x8 | x8 | x8 |[M:5/8] x5 |[M:3/8] x3 |[M:4/4] x8 | %9
[M:5/8] x5 |[M:3/8] x3 |[M:4/4] x8 | CC z C FAGF | x8 |[M:17/16] x17/2 |[M:4/4] x8 | %16
[M:17/16] x17/2 |[M:4/4] x8 |[M:11/16] x11/2 |] %19

